X:23
T:Ymdeithdon Hiraeth - Hiraeth March
M:2/4
L:1/8
Q:160
C:Trad. arr. J.T.
R:March
N:Based upon the song `Hiraeth'. Uses low C natural
K:D
AA A>A | FD AD/2E/2 | FF E>F | ED DD/2E/2 | FF ED | BA B/2c/2d | FF E>F|
| ED D2 :||: AA d>d | AF AD/2E/2 | FF GB | BA AD/2E/2 | FF GB | BA AD/2 E/2|
FF E/2D/2=C | D2 D2 :||: A>A DD | A/2G/2A dF/2G/2 | AA G>A |
GF FD/2E/2 | FF ED | BA B/2c/2d | FF E/2D/2=C | D2 D2 :||
